assets/icon-images/rupees.svg

<svg height="362pt" viewBox="0 0 362 362.00089" width="362pt" xmlns="http://www.w3.org/2000/svg"><path d="m307 185c0 71.796875-58.203125 130-130 130s-130-58.203125-130-130 58.203125-130 130-130 130 58.203125 130 130zm0 0" fill="#e48e66"/><path d="m100.929688 284.921875-26.109376 35.429687-.25.339844-19.121093 25.949219-9.457031-54.589844zm0 0" fill="#6fe3ff"/><g fill="#63316d"><path d="m177 22c18.265625-.023438 36.40625 3.03125 53.65625 9.039062 2.363281.839844 5 .347657 6.902344-1.285156 1.902344-1.636718 2.785156-4.167968 2.3125-6.632812s-2.230469-4.488282-4.605469-5.300782c-18.730469-6.523437-38.429687-9.84375-58.265625-9.820312-97.597656 0-177 79.398438-177 177-.0273438 20.683594 3.582031 41.214844 10.664062 60.648438 1.324219 3.632812 5.34375 5.503906 8.976563 4.175781 3.632813-1.324219 5.5-5.34375 4.175781-8.976563-6.519531-17.894531-9.84375-36.800781-9.816406-55.847656 0-89.878906 73.121094-163 163-163zm0 0"/><path d="m233.460938 109.128906c0-3.863281-3.132813-7-7-7h-98.921876c-3.863281 0-7 3.136719-7 7 0 3.867188 3.136719 7 7 7h28.300782c16.871094.019532 31.398437 11.90625 34.753906 28.441406h-63.054688c-3.863281 0-7 3.132813-7 7 0 3.867188 3.136719 7 7 7h63.0625c-3.347656 16.542969-17.882812 28.441407-34.761718 28.449219h-28.300782c-2.867187 0-5.445312 1.75-6.503906 4.414063-1.058594 2.664062-.386718 5.707031 1.695313 7.675781l70.75 66.847656c2.8125 2.648438 7.234375 2.515625 9.886719-.289062 2.652343-2.804688 2.53125-7.230469-.269532-9.886719l-57.957031-54.761719h10.699219c24.605468-.003906 45.46875-18.09375 48.957031-42.449219h21.664063c3.867187 0 7-3.132812 7-7 0-3.867187-3.132813-7-7-7h-21.675782c-1.550781-10.828124-6.65625-20.832031-14.515625-28.441406h36.191407c3.867187 0 7-3.132812 7-7zm0 0"/><path d="m362 50.949219c0-3.863281-3.132812-7-7-7h-36.949219v-36.949219c0-3.867188-3.132812-7-7-7-3.867187 0-7 3.132812-7 7v36.949219h-39.050781c-3.867188 0-7 3.136719-7 7 0 3.867187 3.132812 7 7 7h39.050781v39.050781c0 3.867188 3.132813 7 7 7 3.867188 0 7-3.132812 7-7v-39.050781h36.949219c3.867188 0 7-3.132813 7-7zm0 0"/><path d="m48.554688 347.835938c.476562 2.761718 2.558593 4.972656 5.289062 5.617187 2.726562.644531 5.578125-.402344 7.242188-2.660156l15-20.355469c29.589843 20.65625 64.828124 31.675781 100.914062 31.5625 97.601562 0 177-79.398438 177-177 .046875-23.410156-4.585938-46.59375-13.621094-68.191406-1.515625-3.527344-5.589844-5.179688-9.132812-3.699219-3.542969 1.484375-5.230469 5.542969-3.785156 9.101563 8.320312 19.886718 12.582031 41.234374 12.539062 62.789062 0 89.878906-73.121094 163-163 163-33.09375.105469-65.421875-9.960938-92.605469-28.839844l22.171875-30.085937c1.664063-2.257813 1.820313-5.292969.394532-7.707031-1.421876-2.417969-4.148438-3.75-6.929688-3.390626l-54.941406 7.132813c-1.894532.242187-3.605469 1.25-4.738282 2.785156-1.132812 1.539063-1.585937 3.46875-1.261718 5.351563zm37.007812-53.863282-16.570312 22.492188v.007812l-9.4375 12.796875-5.410157-31.226562zm0 0"/></g></svg>

<svg width="362" height="362" viewBox="0 0 362 362" fill="none" xmlns="http://www.w3.org/2000/svg">
<g id="rupees 1" clip-path="url(#clip0)">
<path id="Vector" d="M307 185C307 256.797 248.797 315 177 315C105.203 315 47 256.797 47 185C47 113.203 105.203 55 177 55C248.797 55 307 113.203 307 185Z" fill="#E48E66"/>
<g id="Group">
<path id="Vector_2" d="M233.461 109.129C233.461 105.266 230.328 102.129 226.461 102.129H127.539C123.676 102.129 120.539 105.266 120.539 109.129C120.539 112.996 123.676 116.129 127.539 116.129H155.84C172.711 116.148 187.238 128.035 190.594 144.57H127.539C123.676 144.57 120.539 147.703 120.539 151.57C120.539 155.438 123.676 158.57 127.539 158.57H190.602C187.254 175.113 172.719 187.012 155.84 187.02H127.539C124.672 187.02 122.094 188.77 121.035 191.434C119.977 194.098 120.648 197.141 122.73 199.109L193.48 265.957C196.293 268.605 200.715 268.473 203.367 265.668C206.02 262.863 205.898 258.438 203.098 255.781L145.141 201.02H155.84C180.445 201.016 201.309 182.926 204.797 158.57H226.461C230.328 158.57 233.461 155.438 233.461 151.57C233.461 147.703 230.328 144.57 226.461 144.57H204.785C203.234 133.742 198.129 123.738 190.27 116.129H226.461C230.328 116.129 233.461 112.996 233.461 109.129V109.129Z" fill="#63316D"/>
<g id="rotate-arrow">
<path id="Vector_3" d="M100.93 284.922L74.8203 320.352L74.5703 320.691L55.4492 346.641L45.9922 292.051L100.93 284.922Z" fill="#6FE3FF"/>
<path id="Vector_4" d="M177 22C195.266 21.9766 213.406 25.0313 230.656 31.0391C233.02 31.8789 235.656 31.3867 237.559 29.7539C239.461 28.1172 240.344 25.5859 239.871 23.1211C239.398 20.6563 237.641 18.6328 235.266 17.8203C216.535 11.2969 196.836 7.97656 177 8C79.4023 8 1.6155e-06 87.3984 1.6155e-06 185C-0.0273422 205.684 3.58203 226.215 10.6641 245.648C11.9883 249.281 16.0078 251.152 19.6406 249.824C23.2734 248.5 25.1406 244.48 23.8164 240.848C17.2969 222.953 13.9727 204.047 14 185C14 95.1211 87.1211 22 177 22Z" fill="#63316D"/>
<path id="Vector_5" d="M362 50.9492C362 47.0859 358.867 43.9492 355 43.9492H318.051V7C318.051 3.13281 314.918 0 311.051 0C307.184 0 304.051 3.13281 304.051 7V43.9492H265C261.133 43.9492 258 47.0859 258 50.9492C258 54.8164 261.133 57.9492 265 57.9492H304.051V97C304.051 100.867 307.184 104 311.051 104C314.918 104 318.051 100.867 318.051 97V57.9492H355C358.867 57.9492 362 54.8164 362 50.9492Z" fill="#63316D"/>
<path id="Vector_6" d="M48.5547 347.836C49.0312 350.598 51.1133 352.809 53.8437 353.453C56.5703 354.098 59.4219 353.051 61.0859 350.793L76.0859 330.438C105.676 351.094 140.914 362.113 177 362C274.602 362 354 282.602 354 185C354.047 161.59 349.414 138.406 340.379 116.809C338.863 113.281 334.789 111.629 331.246 113.109C327.703 114.594 326.016 118.652 327.461 122.211C335.781 142.098 340.043 163.445 340 185C340 274.879 266.879 348 177 348C143.906 348.105 111.578 338.039 84.3945 319.16L106.566 289.074C108.23 286.816 108.387 283.781 106.961 281.367C105.539 278.949 102.812 277.617 100.031 277.977L45.0898 285.109C43.1953 285.352 41.4844 286.359 40.3516 287.895C39.2187 289.434 38.7656 291.363 39.0898 293.246L48.5547 347.836ZM85.5625 293.973L68.9922 316.465V316.473L59.5547 329.27L54.1445 298.043L85.5625 293.973Z" fill="#63316D"/>
</g>
</g>
</g>
<defs>
<clipPath id="clip0">
<rect width="362" height="362" fill="white"/>
</clipPath>
</defs>
</svg>
